X:1
T:I’ve Reached the Port of Peace
T:I’ve Reached the Port of Peace
T:Isaac Newton Hugg
T:Johnson Oatman, Jr., 1902
T:Public Domain Courtesy of the Cyber Hymnal™
T:Public Domain Courtesy of the Cyber Hymnal™
C:Isaac Newton Hugg
Z:Public Domain
Z:Courtesy of the Cyber Hymnal™
%%score ( 1 2 ) ( 3 4 )
L:1/8
Q:1/4=107
M:4/4
K:Ab
V:1 treble 
V:2 treble 
V:3 bass 
V:4 bass 
V:1
 E2 | [CA]2 [CA]2 [EA]2 [EB]2 | [Ec]2 [Ae]2 [Ae]3 [Ae] | [Af]2 [Ae]2 [Ac]2 (BA) | %4
w: 1.~Tho’|stor- my gales sweep|o’er life’s seas, Tho’|break- ers all a- *|
w: 2.~Of|judg- ment long I|stood in awe, Its|ter- rors on- ly *|
w: 3.~Now|let the days be|what they will, I|hear that whis- per, *|
w: 4.~The|world may smile, the|world may frown, May|lift me up or *|
w: 5.~And|when I reach the|o- ther side, And|on those pla- cid *|
 [Ec]2 [=Dc]2 !fermata![EB]2 (Bc) | [Fd]2 [Fd]2 [Gd]2 (cB) | %6
w: round may be, Praise *|God, no harm can *|
w: I fore- saw, But, *|since I’ve leanred to *|
w: “Peace, be still”; Safe *|an- chored here, I *|
w: cast me down; I *|know my bark, it *|
w: wa- ters glide, I’ll *|find, just o’er life’s *|
 [Ac]2 [Ae]2 !fermata![Ae]2 ([Ec][DB]) | [CA]2 [EA]2 [Ec]3 [DEB] | [CEA]6 ||"^Refrain" (cd) | %10
w: come to me, I’ve *|reached the port of|peace.||
w: love God’s law, I’ve *|reached the port of|peace.|I’ve *|
w: fear no ill, I’ve *|reached the port of|peace.||
w: can- not drown, I’ve *|reached the port of|peace.||
w: surg- ing tide, E- *|ter- nal ports of|peace.||
 [Ae]2 [Af]2 [Ae]3 [Ac] | [Ae]6 (cB) | [EA]2 [CA]2 [=Dc]2 [Dc]2 | B6 ([GB][Ac]) | %14
w: ||||
w: reached the port of|peace, Such *|great a- bid- ing|peace; Tho’ *|
w: ||||
w: ||||
w: ||||
 [Bd]2 [Bd]2 [Bd]2 ([Ac][GB]) | [Ac]2 [Ae]2 [Ae]2 ([EA][FB]) | [Ec]2 [Ec]2 [DEB]3 [CEA] | [CEA]6 |] %18
w: ||||
w: storms may sweep life’s *|migh- ty deep, I’ve *|reached the port of|peace.|
w: ||||
w: ||||
w: ||||
V:2
 E2 | x8 | x8 | x6 =D2 | x6 F2 | x6 G2 | x8 | x8 | x6 || A2 | x8 | x6 E2 | x8 | (E2 G4) x2 | x8 | %15
 x8 | x8 | x6 |] %18
V:3
 E,2 | [A,,E,]2 [A,,E,]2 [C,A,]2 [E,G,]2 | A,2 C2 C3 C | D2 C2 [F,C]2 [F,A,]2 | %4
w: ~|~ ~ ~ ~|~ ~ ~ ~|~ ~ ~ ~|
 [E,A,]2 [B,,F,A,]2 !fermata![E,G,]2 ([D,B,][C,=A,]) | [B,,B,]2 [B,,B,]2 [E,B,]2 (CD) | %6
w: ~ ~ ~ ~ *|~ ~ ~ ~ *|
 [A,E]2 [A,C]2 !fermata![A,C]2 [E,G,]2 | [F,A,]2 [C,A,]2 [E,A,]3 [E,G,] | A,6 || (A,B,) | %10
w: ~ ~ ~ ~|~ ~ ~ ~|~|~ *|
 [A,C]2 [A,D]2 [A,C]3 [A,E] | [A,C]2 [A,C]2 [A,C]2 ([A,,A,][B,,G,]) | %12
w: ~ ~ ~ ~|sweet peace, ~ ~ *|
 [C,A,]2 [E,A,]2 [F,A,]2 [B,,A,]2 | [E,G,][E,G,][E,E][E,E] [E,E]2 [E,E]2 | %14
w: ~ ~ ~ ~|~ a- bid- ing peace; *|
 [E,E]2 [E,E]2 [E,E]2 [E,E]2 | [A,E]2 [A,C]2 [A,C]2 A,2 | [E,A,]2 [E,A,]2 [E,G,]3 [A,,A,] | %17
w: |||
 [A,,A,]6 |] %18
w: |
V:4
 E,2 | x8 | A,2 C2 C3 C | D2 C2 x4 | x8 | x6 E,2 | x8 | x8 | A,6 || A,2 | x8 | x8 | x8 | x8 | x8 | %15
 x6 (C,D,) | x8 | x6 |] %18

